X:1
T: Miss Dorothy Davidson
C:C. Sherrit
R:Strathspey
Q: 128
K:D
M:4/4
L:1/16
F3G|:Af3 f3e e3d d3c|B3^A Bd3 E6 D2|C3E GB3 A3F df3|f3e eB3 e4 F3G|
Af3 f3e e3d d3c|B3^A Bd3 E6 D2|((3C2E2G2) c3B AF3 d3f|1e3d ce3 d4 F3G:|2e3d ce3 d4 d3e|
|:f3A f3e ed3 d3c|B3G DG3 B4 e3d|c3E G3B AF3 d3f|f3e eB3 e4 a3g|
f3A f3e ed3 d3c|B3G ED3 B,4 E3D|((3C2E2G2) c3B AF3 d3f|1e3d ce3 d4 d3e:|2e3d ce3 d4||
